static/img/organizations/val-town.svg

<svg xmlns="http://www.w3.org/2000/svg" width="600" height="237" fill="none"><path fill="#fff" d="M0 0h600v237H0z"/><g fill="#000" clip-path="url(#a)"><path d="M171.182 146.387q5.834 0 9.524-3.248 3.689-3.246 3.689-8.644v-1.101h-13.984q-3.855 0-6.056 1.652-2.204 1.651-2.202 4.624 0 2.974 2.312 4.845 2.312 1.873 6.717 1.872m-2.422 11.231q-5.838 0-10.461-2.037-4.625-2.035-7.322-5.946-2.699-3.907-2.698-9.524-.001-5.616 2.698-9.415 2.697-3.798 7.487-5.725 4.789-1.927 10.956-1.927h14.975v-3.083q-.001-3.854-2.422-6.332-2.424-2.477-7.708-2.477-5.176 0-7.708 2.367-2.535 2.37-3.303 6.111l-12.773-4.294q1.322-4.184 4.239-7.653 2.917-3.467 7.818-5.615 4.899-2.147 11.947-2.147 10.79.001 17.067 5.395 6.276 5.396 6.276 15.636v20.37q0 3.304 3.083 3.304h4.404v11.451h-9.248q-4.076 0-6.717-1.982-2.643-1.982-2.643-5.286v-.109h-2.092q-.44 1.32-1.982 3.468t-4.845 3.799q-3.304 1.651-9.028 1.651m59.457-78.619h-13.874v77.077h13.874zm62.101 77.078q-5.396 0-8.754-3.358-3.359-3.358-3.358-8.974v-30.831h-13.654v-11.452h13.654V84.505h13.873v16.957h14.976v11.452h-14.976v28.408q0 3.304 3.084 3.304h10.57v11.451zm52.192-10.791q6.385 0 10.571-4.129 4.184-4.129 4.184-11.837v-1.101q0-7.707-4.13-11.837-4.129-4.13-10.625-4.129-6.386 0-10.571 4.129-4.185 4.13-4.184 11.837v1.101q0 7.708 4.184 11.837 4.185 4.13 10.571 4.129m0 12.332q-8.149 0-14.645-3.303-6.498-3.303-10.24-9.58-3.744-6.275-3.744-15.085v-1.762q0-8.807 3.744-15.085 3.742-6.276 10.24-9.579 6.496-3.303 14.645-3.303t14.645 3.303 10.24 9.579q3.743 6.278 3.744 15.085v1.762q0 8.81-3.744 15.085t-10.24 9.58q-6.498 3.303-14.645 3.303m43.391-9.291-6.614-46.865h13.763l4.845 45.255h1.982l5.861-37.632a9.01 9.01 0 0 1 8.901-7.623h6.813a9.01 9.01 0 0 1 8.901 7.623l5.861 37.632h1.982l4.845-45.255h13.763l-6.614 46.865a9.01 9.01 0 0 1-8.92 7.75h-7.472a9.01 9.01 0 0 1-8.901-7.623l-5.86-37.633h-1.983l-5.86 37.633a9.01 9.01 0 0 1-8.901 7.623h-7.472a9.01 9.01 0 0 1-8.92-7.75m81.914 7.75v-54.615h13.654v7.158h1.982q1.321-2.863 4.954-5.451 3.634-2.586 11.012-2.587 6.385.001 11.176 2.918 4.79 2.917 7.432 8.037t2.642 11.947v32.593h-13.873v-31.492q0-6.164-3.028-9.249-3.029-3.082-8.644-3.083-6.387.002-9.91 4.239-3.524 4.24-3.523 11.837v27.748zm-332.881-54.614-26.819 44.484h-1.982v-36.762a7.72 7.72 0 0 0-7.722-7.722H92.26v45.606a9.01 9.01 0 0 0 9.008 9.009h10.007c4.643 0 8.934-2.477 11.257-6.497l27.8-48.118z"/><path d="M79 101.458h13.903v11.452H79z"/></g><defs><clipPath id="a"><path fill="#fff" d="M79 79h442v79H79z"/></clipPath></defs></svg>

<svg width="600" height="237" viewBox="0 0 600 237" fill="none" xmlns="http://www.w3.org/2000/svg">
<rect width="600" height="237" fill="white"/>
<g clip-path="url(#clip0_1045_720)">
<path d="M171.182 146.387C175.072 146.387 178.246 145.305 180.706 143.139C183.165 140.975 184.395 138.093 184.395 134.495V133.394H170.411C167.841 133.394 165.822 133.945 164.355 135.046C162.885 136.147 162.153 137.688 162.153 139.67C162.153 141.652 162.924 143.268 164.465 144.515C166.007 145.764 168.245 146.387 171.182 146.387ZM168.76 157.618C164.867 157.618 161.382 156.939 158.299 155.581C155.216 154.224 152.775 152.242 150.977 149.635C149.177 147.031 148.279 143.855 148.279 140.111C148.279 136.367 149.177 133.229 150.977 130.696C152.775 128.164 155.271 126.256 158.464 124.971C161.657 123.687 165.308 123.044 169.42 123.044H184.395V119.961C184.395 117.392 183.586 115.281 181.973 113.629C180.357 111.978 177.788 111.152 174.265 111.152C170.814 111.152 168.245 111.942 166.557 113.519C164.867 115.099 163.766 117.136 163.254 119.63L150.481 115.336C151.362 112.547 152.775 109.996 154.72 107.683C156.664 105.371 159.271 103.5 162.538 102.068C165.804 100.637 169.786 99.921 174.485 99.921C181.678 99.921 187.368 101.721 191.552 105.316C195.736 108.914 197.828 114.125 197.828 120.952V141.322C197.828 143.524 198.856 144.626 200.911 144.626H205.315V156.077H196.067C193.35 156.077 191.111 155.416 189.35 154.095C187.588 152.773 186.707 151.012 186.707 148.809V148.7H184.615C184.321 149.58 183.661 150.737 182.633 152.168C181.604 153.599 179.991 154.866 177.788 155.967C175.586 157.068 172.575 157.618 168.76 157.618Z" fill="black"/>
<path d="M228.217 78.999H214.343V156.076H228.217V78.999Z" fill="black"/>
<path d="M290.318 156.077C286.721 156.077 283.802 154.958 281.564 152.719C279.324 150.481 278.206 147.488 278.206 143.745V112.914H264.552V101.462H278.206V84.505H292.079V101.462H307.055V112.914H292.079V141.322C292.079 143.524 293.107 144.626 295.163 144.626H305.733V156.077H290.318Z" fill="black"/>
<path d="M342.51 145.286C346.767 145.286 350.29 143.91 353.081 141.157C355.87 138.404 357.265 134.459 357.265 129.32V128.219C357.265 123.082 355.888 119.135 353.135 116.382C350.383 113.629 346.84 112.253 342.51 112.253C338.252 112.253 334.729 113.629 331.939 116.382C329.149 119.135 327.755 123.082 327.755 128.219V129.32C327.755 134.459 329.149 138.404 331.939 141.157C334.729 143.91 338.252 145.286 342.51 145.286ZM342.51 157.618C337.077 157.618 332.196 156.517 327.865 154.315C323.533 152.113 320.12 148.919 317.625 144.735C315.129 140.551 313.881 135.524 313.881 129.65V127.888C313.881 122.017 315.129 116.988 317.625 112.803C320.12 108.619 323.533 105.426 327.865 103.224C332.196 101.022 337.077 99.921 342.51 99.921C347.942 99.921 352.823 101.022 357.155 103.224C361.485 105.426 364.898 108.619 367.395 112.803C369.89 116.988 371.139 122.017 371.139 127.888V129.65C371.139 135.524 369.89 140.551 367.395 144.735C364.898 148.919 361.485 152.113 357.155 154.315C352.823 156.517 347.942 157.618 342.51 157.618Z" fill="black"/>
<path d="M385.901 148.327L379.287 101.462H393.05L397.895 146.717H399.877L405.738 109.085C406.421 104.697 410.199 101.462 414.639 101.462H421.452C425.892 101.462 429.67 104.697 430.353 109.085L436.214 146.717H438.196L443.041 101.462H456.804L450.19 148.327C449.563 152.772 445.759 156.077 441.27 156.077H433.798C429.358 156.077 425.58 152.841 424.897 148.454L419.037 110.821H417.054L411.194 148.454C410.511 152.841 406.733 156.077 402.293 156.077H394.821C390.332 156.077 386.528 152.772 385.901 148.327Z" fill="black"/>
<path d="M467.815 156.077V101.462H481.469V108.62H483.451C484.332 106.711 485.983 104.895 488.405 103.169C490.828 101.446 494.498 100.582 499.417 100.582C503.673 100.582 507.399 101.556 510.593 103.5C513.786 105.445 516.263 108.124 518.025 111.537C519.786 114.951 520.667 118.934 520.667 123.484V156.077H506.794V124.585C506.794 120.476 505.784 117.392 503.766 115.336C501.746 113.282 498.866 112.253 495.122 112.253C490.864 112.253 487.561 113.668 485.212 116.492C482.862 119.319 481.689 123.264 481.689 128.329V156.077H467.815Z" fill="black"/>
<path d="M134.934 101.463L108.115 145.947H106.133V109.185C106.133 104.92 102.676 101.463 98.4109 101.463H92.2599V147.069C92.2599 152.044 96.2929 156.078 101.268 156.078H111.275C115.918 156.078 120.209 153.601 122.532 149.581L150.332 101.463H134.934Z" fill="black"/>
<path d="M79 101.458H92.903V112.91H79V101.458Z" fill="black"/>
</g>
<defs>
<clipPath id="clip0_1045_720">
<rect width="442" height="79" fill="white" transform="translate(79 79)"/>
</clipPath>
</defs>
</svg>
